transport/1f69a-BW.svg

<svg xmlns="http://www.w3.org/2000/svg" viewBox="0 0 64 64" enable-background="new 0 0 64 64">
  <title>delivery truck</title>
  <path d="M 28.25 18 C 25.156 18 22.625 20.582281 22.625 23.738281 L 15.5 23.738281 C 13.092 23.738281 11.188313 23.739328 9.8203125 25.361328 C 8.5333125 26.887328 8.28125 29.428688 8.28125 33.304688 C 8.28125 35.409687 7.377 36.381562 6.125 37.726562 C 4.705 39.250563 2.9375 41.149203 2.9375 44.783203 L 2.9375 48.609375 L 2.9375 48.878906 C 2.3815 49.209906 2 49.819484 2 50.521484 L 2 52.433594 C 2 53.485594 2.845 54.347656 3.875 54.347656 L 5.8242188 54.347656 C 5.7802188 54.660656 5.75 54.978688 5.75 55.304688 C 5.75 59.002688 8.6885 62 12.3125 62 C 15.9345 62 18.876953 59.001688 18.876953 55.304688 C 18.876953 54.978687 18.846734 54.660656 18.802734 54.347656 L 26.376953 54.347656 L 26.376953 55.304688 C 26.376953 56.355688 27.221953 57.216797 28.251953 57.216797 L 35.751953 57.216797 C 36.782953 57.216797 37.626953 56.355688 37.626953 55.304688 L 37.626953 54.347656 L 44.263672 54.347656 C 44.219672 54.660656 44.189453 54.978688 44.189453 55.304688 C 44.189453 59.001688 47.127953 62 50.751953 62 C 54.373953 62 57.314453 59.001688 57.314453 55.304688 C 57.314453 54.978687 57.284234 54.660656 57.240234 54.347656 L 60.128906 54.347656 C 61.159906 54.347656 62.003906 53.487547 62.003906 52.435547 L 62.003906 50.521484 C 62.000906 49.470484 61.156 48.609375 60.125 48.609375 L 60.125 23.738281 C 60.125 20.581281 57.594 18 54.5 18 L 28.25 18 z M 28.251953 20.869141 L 54.5 20.869141 C 56.051 20.869141 57.3125 22.155281 57.3125 23.738281 L 57.3125 29.478516 L 55.4375 29.478516 L 55.4375 23.738281 C 55.4375 23.210281 55.017 22.78125 54.5 22.78125 L 28.25 22.78125 C 27.734 22.78125 27.3125 23.210281 27.3125 23.738281 L 27.3125 29.478516 L 25.4375 29.478516 L 25.4375 23.738281 C 25.4375 22.155281 26.700953 20.869141 28.251953 20.869141 z M 29.1875 23.738281 C 29.7065 23.738281 30.126953 24.166312 30.126953 24.695312 C 30.125953 25.223312 29.7055 25.652344 29.1875 25.652344 C 28.6695 25.652344 28.25 25.223312 28.25 24.695312 C 28.25 24.166313 28.6695 23.738281 29.1875 23.738281 z M 53.5625 23.738281 C 54.0815 23.738281 54.501953 24.166313 54.501953 24.695312 C 54.501953 25.222313 54.0815 25.652344 53.5625 25.652344 C 53.0445 25.651344 52.625 25.222313 52.625 24.695312 C 52.625 24.166313 53.0445 23.738281 53.5625 23.738281 z M 15.501953 25.652344 L 22.626953 25.652344 L 22.626953 48.609375 L 4.8125 48.609375 L 4.8125 44.783203 C 4.8125 39.043203 10.15625 39.043688 10.15625 33.304688 C 10.15625 25.652687 11.270953 25.652344 15.501953 25.652344 z M 25.4375 39.042969 L 27.3125 39.042969 L 27.3125 42.869141 C 27.3125 43.396141 27.734 43.826172 28.25 43.826172 L 54.5 43.826172 C 55.017 43.826172 55.4375 43.396141 55.4375 42.869141 L 55.4375 39.042969 L 57.3125 39.042969 L 57.3125 42.869141 C 57.3125 44.451141 56.051 45.738281 54.5 45.738281 L 28.25 45.738281 C 26.699 45.738281 25.4375 44.451141 25.4375 42.869141 L 25.4375 39.042969 z M 29.1875 40.957031 C 29.7065 40.957031 30.125 41.384109 30.125 41.912109 C 30.125 42.440109 29.7065 42.869141 29.1875 42.869141 C 28.6695 42.869141 28.248047 42.440109 28.248047 41.912109 C 28.248047 41.384109 28.6695 40.957031 29.1875 40.957031 z M 53.5625 40.957031 C 54.0815 40.957031 54.5 41.384109 54.5 41.912109 C 54.5 42.440109 54.0815 42.869141 53.5625 42.869141 C 53.0445 42.869141 52.623047 42.440109 52.623047 41.912109 C 52.623047 41.384109 53.0445 40.957031 53.5625 40.957031 z M 3.875 50.521484 L 4.8125 50.521484 L 7.7246094 50.521484 C 7.1746094 51.069484 6.724625 51.719547 6.390625 52.435547 L 3.875 52.435547 L 3.875 50.521484 z M 16.900391 50.521484 L 22.625 50.521484 L 24.5 50.521484 L 46.162109 50.521484 C 45.613109 51.070484 45.162125 51.719547 44.828125 52.435547 L 37.363281 52.435547 C 37.037281 51.867547 36.439 51.478516 35.75 51.478516 L 28.25 51.478516 C 27.562 51.478516 26.964672 51.867547 26.638672 52.435547 L 18.234375 52.435547 C 17.899375 51.719547 17.450391 51.070484 16.900391 50.521484 z M 55.337891 50.521484 L 60.125 50.521484 L 60.125 52.435547 L 56.671875 52.435547 C 56.337875 51.719547 55.887891 51.070484 55.337891 50.521484 z M 11.400391 51.603516 C 11.463391 52.070516 11.8385 52.433594 12.3125 52.433594 C 12.7855 52.433594 13.161609 52.070516 13.224609 51.603516 C 13.911609 51.779516 14.524953 52.140578 15.001953 52.642578 C 14.634953 52.931578 14.511047 53.447187 14.748047 53.867188 C 14.983047 54.283187 15.477297 54.434719 15.904297 54.261719 C 15.997297 54.595719 16.0625 54.940687 16.0625 55.304688 C 16.0625 55.667687 15.997297 56.011703 15.904297 56.345703 C 15.478297 56.171703 14.984047 56.321281 14.748047 56.738281 C 14.511047 57.157281 14.634953 57.676844 15.001953 57.964844 C 14.523953 58.466844 13.910609 58.826906 13.224609 59.003906 C 13.161609 58.537906 12.7865 58.173828 12.3125 58.173828 C 11.8405 58.173828 11.463391 58.537906 11.400391 59.003906 C 10.713391 58.827906 10.102 58.467844 9.625 57.964844 C 9.992 57.676844 10.114906 57.159281 9.8789062 56.738281 C 9.6439063 56.322281 9.1486563 56.173703 8.7226562 56.345703 C 8.6296563 56.012703 8.5644531 55.667687 8.5644531 55.304688 C 8.5644531 54.941688 8.6296562 54.594719 8.7226562 54.261719 C 9.1486563 54.435719 9.6419062 54.285187 9.8789062 53.867188 C 10.114906 53.448188 9.992 52.931531 9.625 52.644531 C 10.103 52.141531 10.714391 51.779516 11.400391 51.603516 z M 49.837891 51.605469 C 49.901891 52.072469 50.275047 52.433594 50.748047 52.433594 C 51.221047 52.433594 51.597156 52.072469 51.660156 51.605469 C 52.347156 51.781469 52.9605 52.142531 53.4375 52.644531 C 53.0715 52.933531 52.947594 53.449141 53.183594 53.869141 C 53.418594 54.285141 53.913844 54.434719 54.339844 54.261719 C 54.432844 54.595719 54.498047 54.940687 54.498047 55.304688 C 54.498047 55.667687 54.433844 56.011703 54.339844 56.345703 C 53.913844 56.171703 53.419594 56.323234 53.183594 56.740234 C 52.947594 57.159234 53.0715 57.676844 53.4375 57.964844 C 52.9615 58.465844 52.349109 58.826906 51.662109 59.003906 C 51.599109 58.537906 51.224 58.173828 50.75 58.173828 C 50.278 58.173828 49.901891 58.537906 49.837891 59.003906 C 49.151891 58.827906 48.5395 58.466844 48.0625 57.964844 C 48.4295 57.676844 48.553406 57.159281 48.316406 56.738281 C 48.081406 56.322281 47.587156 56.173703 47.160156 56.345703 C 47.066156 56.013703 47 55.667687 47 55.304688 C 47 54.941688 47.065203 54.596672 47.158203 54.263672 C 47.584203 54.437672 48.077453 54.287141 48.314453 53.869141 C 48.551453 53.450141 48.4295 52.932531 48.0625 52.644531 C 48.5405 52.141531 49.152891 51.782469 49.837891 51.605469 z M 28.484375 52.435547 L 35.515625 52.435547 C 36.160625 52.435547 36.6875 52.865625 36.6875 53.390625 C 36.6875 53.917625 36.159625 54.347656 35.515625 54.347656 L 28.484375 54.347656 C 27.839375 54.347656 27.3125 53.917625 27.3125 53.390625 C 27.3125 52.865625 27.839375 52.435547 28.484375 52.435547 z "/>
  <path d="m5.75 42.869h1.875v3.826h-1.875z"/>
  <path d="m11.375 30.435v4.569c0 0 0 2.127 1.875 2.127s7.5 0 7.5 0v-9.565h-7.5c0-.001-1.875.212-1.875 2.869"/>
  <ellipse cx="12.313" cy="55.304" rx="1.875" ry="1.913"/>
  <ellipse cx="50.75" cy="55.304" rx="1.875" ry="1.913"/>
  <path d="m28.151 34.152c.008-1.246-.695-1.958-1.957-1.958-.319 0-.548.025-.687.06v4.031c.139.025.352.025.557.025 1.309.008 2.087-.726 2.087-2.158"/>
  <path d="m50.624 34.002h.597c.682 0 1.106-.369 1.106-.93 0-.618-.425-.902-1.081-.902-.318 0-.523.024-.622.049v1.783"/>
</svg>

<svg xmlns="http://www.w3.org/2000/svg" viewBox="0 0 64 64" enable-background="new 0 0 64 64">
    <title>delivery truck</title><path d="m60.125 48.609v-24.87c0-3.157-2.531-5.739-5.625-5.739h-26.25c-3.094 0-5.625 2.583-5.625 5.739h-7.125c-2.408 0-4.312 0-5.68 1.622-1.287 1.526-1.539 4.068-1.539 7.944 0 2.105-.904 3.076-2.156 4.421-1.42 1.524-3.188 3.424-3.188 7.058v3.826.268c-.556.331-.937.941-.937 1.643v1.913c0 1.052.845 1.913 1.875 1.913h1.95c-.044.313-.075.631-.075.957 0 3.698 2.939 6.696 6.563 6.696 3.622 0 6.563-2.998 6.563-6.695 0-.326-.03-.644-.074-.957h7.574v.957c0 1.051.845 1.912 1.875 1.912h7.5c1.031 0 1.875-.861 1.875-1.912v-.957h6.638c-.044.313-.075.631-.075.957 0 3.697 2.939 6.695 6.563 6.695 3.622 0 6.563-2.998 6.563-6.695 0-.326-.03-.644-.074-.957h2.887c1.031 0 1.875-.861 1.875-1.913v-1.913c-.003-1.051-.847-1.913-1.878-1.913m-5.625-2.87h-26.25c-1.551 0-2.813-1.288-2.813-2.87v-3.826h1.875v3.826c0 .527.422.957.938.957h26.25c.517 0 .938-.43.938-.957v-3.826h1.875v3.826c0 1.582-1.262 2.87-2.813 2.87m-21.326-12.005v.836h-2.078v1.656h2.324v.846h-3.331v-5.639h3.208v.846h-2.201v1.456h2.078zm-3.986-8.082c-.518 0-.938-.429-.938-.957 0-.529.42-.957.938-.957.519 0 .938.428.938.957-.001.528-.42.957-.938.957m.937 16.261c0 .528-.419.956-.938.956-.518 0-.938-.428-.938-.956s.42-.956.938-.956c.519 0 .938.428.938.956m7.451-5.704v.863h-3.273v-5.639h1.006v4.776h2.267m.758.863v-5.639h1.009v5.639h-1.009m1.637-5.639h1.098l.752 2.561c.213.709.394 1.371.54 2.057h.017c.146-.669.344-1.354.566-2.041l.802-2.577h1.071l-1.906 5.639h-1.156l-1.784-5.639m8.527 2.301v.836h-2.08v1.656h2.324v.846h-3.331v-5.639h3.21v.846h-2.203v1.456h2.08zm4.127-9.038c0-.529.42-.957.938-.957.519 0 .938.428.938.957 0 .527-.419.957-.938.957-.518-.001-.938-.43-.938-.957m1.875 17.217c0 .528-.419.956-.938.956-.518 0-.938-.428-.938-.956s.42-.956.938-.956c.519 0 .938.428.938.956m-1.649-10.069c.302.259.475.651.475 1.129 0 .728-.481 1.223-.998 1.413v.026c.394.15.63.544.769 1.086.172.703.318 1.355.435 1.574h-1.04c-.081-.168-.213-.627-.368-1.33-.155-.736-.417-.971-.991-.988h-.507v2.318h-.999v-5.563c.377-.067.942-.118 1.523-.118.792 0 1.332.135 1.701.453m3.565 2.852v2.376h-1.006v-2.352l-1.742-3.288h1.144l.663 1.447c.188.418.33.737.477 1.122h.016c.138-.359.293-.711.482-1.122l.662-1.447h1.139l-1.835 3.264m-30.978-10.957c0-1.583 1.262-2.87 2.813-2.87h26.249c1.551 0 2.813 1.287 2.813 2.87v5.739h-1.875v-5.739c0-.528-.421-.957-.938-.957h-26.25c-.516 0-.938.429-.938.957v5.739h-1.875v-5.739zm-.938 7.77c.443-.076 1.008-.118 1.604-.118 1.03 0 1.743.218 2.251.652.532.444.859 1.113.859 2.076 0 1.003-.336 1.756-.859 2.242-.548.51-1.424.77-2.496.77-.59 0-1.031-.034-1.359-.076v-5.546m-19.687 13.274c0-5.74 5.344-5.74 5.344-11.479 0-7.652 1.113-7.652 5.344-7.652 2.227 0 7.125 0 7.125 0v22.957h-17.813v-3.826m1.578 7.652h-2.516v-1.913h.938 2.912c-.55.548-1 1.197-1.334 1.913m6.834 6.568c-.063-.466-.438-.829-.912-.829-.472 0-.849.363-.912.829-.687-.176-1.299-.536-1.776-1.039.367-.288.49-.804.254-1.225-.235-.416-.73-.565-1.156-.393-.093-.333-.159-.679-.159-1.042s.065-.709.158-1.042c.426.174.92.024 1.157-.394.236-.419.113-.937-.254-1.224.478-.503 1.09-.864 1.776-1.04.063.467.438.829.912.829.473 0 .849-.362.912-.829.687.176 1.299.537 1.776 1.039-.367.289-.49.805-.253 1.225.235.416.729.566 1.156.393.093.334.158.679.158 1.043 0 .363-.065.707-.158 1.041-.426-.174-.92-.023-1.156.394-.237.419-.114.937.253 1.225-.478.502-1.09.862-1.776 1.039m22.291-4.655h-7.031c-.645 0-1.172-.43-1.172-.957 0-.525.527-.956 1.172-.956h7.031c.645 0 1.172.431 1.172.956 0 .527-.528.957-1.172.957m9.312-1.913h-7.465c-.326-.568-.924-.956-1.613-.956h-7.5c-.688 0-1.286.388-1.612.956h-8.403c-.335-.716-.785-1.365-1.335-1.914h5.725 1.875 21.662c-.549.549-1 1.198-1.334 1.914m6.834 6.568c-.063-.466-.438-.829-.912-.829-.472 0-.848.363-.912.829-.686-.176-1.298-.537-1.775-1.039.367-.288.49-.804.253-1.225-.235-.416-.729-.565-1.156-.393-.094-.332-.16-.678-.16-1.041s.066-.709.159-1.042c.426.174.919.024 1.156-.394.237-.419.114-.936-.253-1.224.478-.503 1.09-.863 1.775-1.04.064.467.439.829.912.829s.849-.362.912-.829c.687.176 1.299.537 1.776 1.039-.366.289-.489.805-.253 1.225.235.416.73.566 1.156.393.093.334.158.679.158 1.043 0 .363-.064.707-.158 1.041-.426-.174-.92-.023-1.156.394-.236.419-.113.937.253 1.225-.476.501-1.088.861-1.775 1.038m8.463-6.568h-3.453c-.334-.716-.784-1.364-1.334-1.913h4.787v1.913"/><path d="m5.75 42.869h1.875v3.826h-1.875z"/><path d="m11.375 30.435v4.569c0 0 0 2.127 1.875 2.127s7.5 0 7.5 0v-9.565h-7.5c0-.001-1.875.212-1.875 2.869"/><ellipse cx="12.313" cy="55.304" rx="1.875" ry="1.913"/><ellipse cx="50.75" cy="55.304" rx="1.875" ry="1.913"/><path d="m28.151 34.152c.008-1.246-.695-1.958-1.957-1.958-.319 0-.548.025-.687.06v4.031c.139.025.352.025.557.025 1.309.008 2.087-.726 2.087-2.158"/><path d="m50.624 34.002h.597c.682 0 1.106-.369 1.106-.93 0-.618-.425-.902-1.081-.902-.318 0-.523.024-.622.049v1.783"/></svg>
